packages/icons/src/box-slash-fill.svg

<svg width="24" height="24" viewBox="0 0 24 24" fill="none" xmlns="http://www.w3.org/2000/svg">
<path fill-rule="evenodd" clip-rule="evenodd" d="M22 15.9454C22 16.0489 21.992 16.1512 21.9765 16.2516L12.3673 7.71509L18.2737 4.59204L20.8842 5.87864C21.5674 6.21536 22 6.91092 22 7.67259V15.9454ZM3.8633 5.51025L1.6875 3.57734L3.02787 2.0929L22.941 19.7831L21.6006 21.2675L18.8545 18.828L12.9444 21.9941C12.3545 22.3101 11.6455 22.3101 11.0556 21.9941L3.05556 17.7084C2.40565 17.3602 2 16.6827 2 15.9454V7.67259C2 6.91092 2.43263 6.21537 3.11584 5.87864L3.8633 5.51025ZM6.23039 7.6131L5.33077 8.06973V12.8441C5.33077 13.0443 5.4502 13.2252 5.63432 13.3039L7.92851 14.2841C8.25838 14.425 8.62496 14.183 8.62496 13.8243V9.74035L6.23039 7.6131ZM15.1832 3.06888L10.0628 5.66786L7.73655 3.60129L11.1158 1.93579C11.6733 1.66105 12.3267 1.66105 12.8842 1.93579L15.1832 3.06888Z" fill="currentColor"/>
</svg>

<svg xmlns="http://www.w3.org/2000/svg" width="24" height="24" fill="none" viewBox="0 0 24 24">
  <path fill="#000" fill-rule="evenodd" d="M22 15.945c0 .104-.008.206-.023.307l-9.61-8.537 5.907-3.123 2.61 1.287A2 2 0 0 1 22 7.673v8.272ZM3.863 5.51 1.688 3.577l1.34-1.484 19.913 17.69-1.34 1.484-2.746-2.439-5.91 3.166a2 2 0 0 1-1.89 0l-8-4.286A2 2 0 0 1 2 15.945V7.673a2 2 0 0 1 1.116-1.794l.747-.369ZM6.23 7.613l-.9.457v4.774c0 .2.12.381.304.46l2.295.98a.5.5 0 0 0 .696-.46V9.74L6.23 7.613Zm8.953-4.544-5.12 2.599L7.737 3.6l3.379-1.665a2 2 0 0 1 1.768 0l2.3 1.133Z" clip-rule="evenodd"/>
</svg>
